X: 1173
T: İzmir Zeybeği
C: (Anonim)
O: Turkey
F: http://compmusic.upf.edu/node/140
N: hicaz--zeybek--aksak----izmir
N: makam= hicaz
N: form= zeybek
N: usul= aksak = 9/8
M: 9/8
L: 1/16
K: C _7/8B ^f ^c 
Q: 1/4=108
%%MIDI tuningsystem comma53
e2de g=fed cdcB ABcd e2 | e2 deg=f edcd cB.A2 .A2.A2  | 
w:   |   | 
e2de g=fed cdcB ABcd e2 | e2 deg=f edcd cB.A2 .A2.A2  | 
w:   |   | 
G2AB G2AB cdcB ABcd e2 | G2 ABG2 ABcd cB.A2 .A2.A2  | 
w:   |   | 
G2AB G2AB cdcB ABcd e2 | G2 ABG2 ABcd cB.A2 .A2.A2  | 
w:   |   | 
efga g2ag gffe .a2.a2 .a2 | ef gag2 aggf fe.e2 .e2.e2  | 
w:   |   | 
efga g2ag gffe .a2.a2 .a2 | ef gag2 aggf fe.e2 .e2.e2  | 
w:   |   | 
efga g=fed cdcB ABcd e2 | ef gag=f edcd cB.A2 .A2.A2  | 
w:   |   | 
efga g=fed cdcB ABcd e2 | ef gag=f edcd cB.A2 .A2.A2  | 
w:   |   | 
G2AB G2AB cdcB ABcd e2 | G2 ABG2 ABcd cB.A2 .A2.A2  | 
w:   |   | 
G2AB G2AB cdcB ABcd e2 | G2 ABG2 ABcd cB.A2 .A2.A2  | 
w:   |   | 
Agfd edaf gafd edad a2 | g2 fded afga fd.e2 .e2.e2  | 
w:   |   | 
Agfd edaf gafd edad a2 | g2 fded afga fd.e2 .e2.e2  | 
w:   |   | 
e2de g=fed cdcB ABcd e2 | e2 deg=f edcd cB.A2 .A2.A2  | 
w:   |   | 
e2de g=fed cdcB ABcd e2 | e2 deg=f edcd cB.A2 .A2.A2  | 
w:   |   | 
|


